website/static/img/icons/computer.svg

<svg fill="none" height="26" viewBox="0 0 33 26" width="33" xmlns="http://www.w3.org/2000/svg"><path d="m27.6903 17.3333v-12.99997c0-.79774-.6475-1.44444-1.4463-1.44444h-20.24729c-.79873 0-1.44624.6467-1.44624 1.44444v12.99997zm.554 2.8889h-24.24787c-.01845.039-.03735.0779-.05669.1165l-.98819 1.9739c-.13644.2726-.02583.604.24705.7403.0767.0383.16128.0582.24704.0582h25.34946c.3051 0 .5524-.247.5524-.5517 0-.0857-.0199-.1701-.0583-.2468l-.9882-1.9739c-.0193-.0386-.0382-.0775-.0567-.1165zm-2.0003-20.2222c2.3962 0 4.3388 1.9401 4.3388 4.33333v13.42147c0 .4485.1045.8908.3053 1.292l.9882 1.9739c.2392.4777.3637 1.0045.3637 1.5387 0 1.9002-1.5423 3.4406-3.4449 3.4406h-25.34946c-.5348 0-1.06226-.1244-1.5406-.3632-1.701699-.8498-2.391449-2.9165-1.540599-4.6161l.988189-1.9739c.20082-.4012.30537-.8435.30537-1.292v-13.42147c0-2.39323 1.9425-4.33333 4.33871-4.33333z" fill="#ff694a"/></svg>

<svg width="33" height="26" viewBox="0 0 33 26" fill="none" xmlns="http://www.w3.org/2000/svg">
<path d="M27.6903 17.3333V4.33333C27.6903 3.53559 27.0428 2.88889 26.244 2.88889H5.99671C5.19798 2.88889 4.55047 3.53559 4.55047 4.33333V17.3333H27.6903ZM28.2443 20.2222H3.99643C3.97798 20.2612 3.95908 20.3001 3.93974 20.3387L2.95155 22.3126C2.81511 22.5852 2.92572 22.9166 3.1986 23.0529C3.2753 23.0912 3.35988 23.1111 3.44564 23.1111H28.7951C29.1002 23.1111 29.3475 22.8641 29.3475 22.5594C29.3475 22.4737 29.3276 22.3893 29.2892 22.3126L28.301 20.3387C28.2817 20.3001 28.2628 20.2612 28.2443 20.2222ZM26.244 0C28.6402 0 30.5828 1.9401 30.5828 4.33333V17.7548C30.5828 18.2033 30.6873 18.6456 30.8881 19.0468L31.8763 21.0207C32.1155 21.4984 32.24 22.0252 32.24 22.5594C32.24 24.4596 30.6977 26 28.7951 26H3.44564C2.91084 26 2.38338 25.8756 1.90504 25.6368C0.203341 24.787 -0.486409 22.7203 0.364441 21.0207L1.35263 19.0468C1.55345 18.6456 1.658 18.2033 1.658 17.7548V4.33333C1.658 1.9401 3.6005 0 5.99671 0H26.244Z" fill="#FF694A"/>
</svg>
